!!!!SEGMENT: pl-kozmzk--mzk-m-346--004_walczynski-franciszek--cantantibus-organis-allegretto.krn
!!!id: 18xx:2799
!!!COM: Walczyński, Franciszek
!!!COM-rism: pe30021989
!!!CDT: ~1852-1937
!!!CNT: Polish
!!!OTL: Cantantibus organis – Allegretto
!!!PDT: 1898
!!!SMS-siglum: PL-KOZmzk
!!!SMS-shelfmark: mzk/m/346
!!!NIFC-rismID: 1001109064
!!!URL-scan: https://repozytorium.nifc.pl/islandora/object/pl-kozmzk%3A7453/datastream/PDF/view
!!!ONB-nifc:
!!!SMS-variant:
!!!SMS-altvar:
**kern	**kern	**dynam
*part1	*part1	*part1
*staff2	*staff1	*
*I"Organo	*I"Organo	*
*clefF4	*clefG2	*
*k[]	*k[]	*
*M3/4	*M3/4	*
=1	=1	=1
*	*^	*
!!LO:TX:B:t=Allegretto.
(8AA\L	(4cc/	[2.e\	p
8A\	.	.	.
8G#X\	8b/L	.	.
8A\	8cc/	.	.
8B\	8dd/	.	.
8A\J	8cc/J	.	.
=2	=2	=2	=2
8G#X\L	8b/L	2.e\_	.
8A\	8cc/	.	.
8G#\	8b/	.	.
8F#X\	8a/J	.	.
8E\	4g#X/	.	.
8D\J)	.	.	.
=3	=3	=3	=3
(8C/L	8a/L	2e\]	<
8GG#X/J	8b/J	.	.
4AA/	4cc/	.	.
4FFn/	4dd/	([4a\	[
=4	=4	=4	=4
(4EE/	2.b/)	4a\]	>
8E/L)	.	8g#X\L	.
8D'/	.	8f#X\J	.
8C'/	.	4g#\)	.
8BB'/J)	.	.	.
=5	=5	=5	=5
(8AA\L	(4cc/	(2e\	] f
8A\	.	.	.
8G#X\	8b/L	.	.
8A\	8cc/	.	.
8F\	8dd/	4a\	.
8C#X\J	8ee/J	.	.
=6	=6	=6	=6
8D\L	8ff/L	8a\L	.
8E\	8ee/	8g\	.
8F\	8dd/	8f\	.
8F#X\	8cc/J	8d\J	.
8G\	4b/)	8g\L	.
8GG\J)	.	[8fn\J)	.
=7	=7	=7	=7
!	!	!	!LO:HP:a
!	!	!	!LO:DY:a
[2.C/	[2.cc/	(8f\L]	p <
.	.	8e\	.
.	.	8d\	.
.	.	8a\	.
.	.	8g\	.
.	.	8f\J	[
=8	=8	=8	=8
!	!	!	!LO:HP:a
2.C/]	2.cc/]	8e\L	>
.	.	8f\	.
.	.	8e\	.
.	.	8d\J)	.
.	.	4e\	]
=9||	=9||	=9||	=9||
!!LO:LB:g=original
8r	(2.b/	(2.g#X\	pp
(8f\L	.	.	.
8e\	.	.	.
8d\	.	.	.
8e\	.	.	.
8f\J	.	.	.
=10	=10	=10	=10
8A\L	2.cc/)	2.a\)	.
8B\	.	.	.
8c\	.	.	.
8d#X\	.	.	.
8e\	.	.	.
8c\J)	.	.	.
=11	=11	=11	=11
(8d#X\L	[2.b/	2.a\	.
8f#X\	.	.	.
8e\	.	.	.
8d#\	.	.	.
8g#X\	.	.	.
8f#\J	.	.	.
=12	=12	=12	=12
8e\L	2.b/]	2.g#X\	.
8B\	.	.	.
8G#X\	.	.	.
8c#X\J	.	.	.
4B\)	.	.	.
=13	=13	=13	=13
(8d#X\L	(2.b/	2.a\	fp
8f#X\	.	.	.
8e\	.	.	.
8d#\	.	.	.
8g#X\	.	.	.
8f#\J	.	.	.
=14	=14	=14	=14
8e\L	4b/	4g#X\	.
8dn\	.	.	.
8cn\	8ee/L	[2a\	.
8d\	8ffn/	.	.
8fn\	8dd/	.	.
8e\J)	8cc/J)	.	.
=15	=15	=15	=15
(8d#X\L	(2b/	4a\]	pp <
8f#X\	.	.	.
8e\	.	4g#X\	.
8dn\	.	.	.
8c\	4cc/	4a\	[
8d#X\J)	.	.	.
=16	=16	=16	=16
!	!LO:TX:b:t=rit.	!	!
(8e\L	2.b;/)	2.g#X\	.
8B\)	.	.	>
8G#X'\	.	.	.
8F#X'\J	.	.	.
4E^;\	.	.	]
*	*v	*v	*
=17||	=17||	=17||
*k[f#c#g#]	*k[f#c#g#]	*
*	*^	*
!!LO:PB:g=original
(8AA\L	(4cc#/	[2.e\	pp
8A\	.	.	.
8G#\	8b/L	.	.
8A\	8cc#/	.	.
8B\	8dd/	.	.
8A\J	8cc#/J	.	.
=18	=18	=18	=18
8G#\L	8b/L	2.e\]	.
8A\	8cc#/	.	.
8G#\	8b/	.	.
8F#\	8a/J)	.	.
8E\	4g#/	.	.
8D\J)	.	.	.
=19	=19	=19	=19
(8C#/L	(8a/L	4e\	.
8GG#/J	8b/J	.	.
4AA/	2cc#/	[2a\	.
4GGn/	.	.	.
=20	=20	=20	=20
2FF#/	2dd/	2.a\]	.
4FFn/)	4dd#X/)	.	.
=21	=21	=21	=21
[2.EE/	8ee/L	8cc#\L	f >
.	8cc#/	8a\	.
.	8b/	8g#\	.
.	8a/J	8f#\J	.
.	4g#/	8e\L	.
.	.	8d\J	.
=22	=22	=22	=22
2.EE/]	(8a/L	4c#\	] p
.	8e/	.	.
.	8d/	8B\L	.
.	8c#/J	8A\J	.
.	8e/L	4G#\	.
.	8d/J	.	.
*	*v	*v	*
=23	=23	=23
*^	*	*
(8A/L	4AA\	4c#/	pp
8Gn/J	.	.	.
8F#/L	8BB\L	8d/L	.
8E/	8C#\	8c#/J	.
8F#/	8D\	4B/	.
8G#X/J	8E\J	.	.
=24	=24	=24	=24
2A/)	2AA\	2c#/)	.
[4E/	4r	4r	pp
=25	=25	=25	=25
2.E/_	2.GG#\	(8e/L	fp
.	.	8f#/	.
.	.	8e/	.
.	.	8B/	.
.	.	8c#/	.
.	.	8d/J	.
=26	=26	=26	=26
8E/]	8AA\	8c#/L	.
8r	8r	8d/	.
4r	4r	8e/	.
.	.	8f#/	.
4r	4r	8g#/	.
.	.	8a/J)	.
*v	*v	*	*
=27	=27	=27
*	*^	*
(8e\L	(2.b/	2.g#\	pp
8f#\	.	.	.
8e\	.	.	.
8B\	.	.	.
8c#\	.	.	.
8d\J	.	.	.
=28	=28	=28	=28
!!LO:LB:g=original
8c#\L	8a/L	8e\L	.
8d\	8b/	8f#\J	.
8c#\	8a/	2e\	.
8G#\J	8b/J	.	.
4A\)	4cc#/)	.	.
=29	=29	=29	=29
(8AA\L	(4cc#/	[2.e\	fp
8A\	.	.	.
8G#\	8b/L	.	.
8A\	8cc#/	.	.
8B\	8dd/	.	.
8A\J	8cc#/J	.	.
=30	=30	=30	=30
8G#\L	8b/L	2.e\_	.
8A\	8cc#/	.	.
8G#\	8b/	.	.
8F#\	8a/J	.	.
8E\	4g#/	.	.
8D\J	.	.	.
=31	=31	=31	=31
8C#/L	8a/L	4e\]	.
8FF#/J	8a#X/	.	.
!	!	!	!LO:HP:a
4BB/	8b/	8d\L	>
.	8an/J	8c#\	.
!LO:TX:i:b=2:t=molto rit.	!	!	!
4E\	4g#/	8e\	.
.	.	8d\J	.
=32	=32	=32	=32
!	!LO:TX:t=P:problem:mixed beam	!	!
!	!LO:TX:t=P:problem:w oryginale descrescendo ciągłe; wyświetlanie przerwane oznaczeniem dynamicznym pianissimo	!	!
2.AA;</)	8a/L	8c#\L	] pp
!	!	!	!LO:HP:a
.	8f#/	8d\	>
.	8e/	8c#</	.
.	8d/J	16F#</L	.
.	.	16G#</JJ	.
.	4c#;/)	4A<;>/	]
*	*v	*v	*
=33||	=33||	=33||
*k[]	*k[]	*
*M3/4	*M3/4	*
*^	*	*
!	!	!LO:TX:a:t=Tempo I.	!
[2.E/	2.GG#X\	(8e/L	p
.	.	8f/	.
.	.	8e/	.
.	.	8B/	.
.	.	8c/	.
.	.	8d/J	.
=34	=34	=34	=34
8E/]	8AA\	8c/L	.
8rAA	8rA	8d/	.
4rAA	4rA	8e'/	.
.	.	8g#X'/	.
4rAA	4rA	8a'/	.
.	.	8cc'/J)	.
*v	*v	*	*
=35	=35	=35
*	*^	*
(8e\L	(2.b/	(2.g#X\	.
8f\	.	.	.
8e\	.	.	.
8B\	.	.	.
8c\	.	.	.
8d\J	.	.	.
=36	=36	=36	=36
8c\L	8a/L	4.e\	<
8G#X\	8b/	.	.
8A\	8cc/	.	.
8Gn\	8cc#X/	8a\	.
8F\	8dd/	8a\L	.
8C#X\J)	8ee/J)	8g\J)	.
=37	=37	=37	=37
!!LO:LB:g=original
8D\	8ff/L	8f\ 8a	[ f
8r	8ee/	8r	.
4r	8dd/	4r	.
.	8cc/	.	.
4r	8b/	4r	.
.	8a/J	.	.
=38	=38	=38	=38
2.r	2.g#X/	8r	p
.	.	8f'\L	.
.	.	8e'\	.
.	.	8d'\	.
.	.	8c'\	.
.	.	8B'\J	.
=39	=39	=39	=39
!	!	!	!LO:DY:b=2
(4F\	4a/	4c\	p <
4D\	4b/	4f\	.
4E\	4g#X/	8e\L	.
.	.	8d\J	.
=40	=40	=40	=40
8AA/L	[2.a/	[2.c\	[ >
8BB/	.	.	.
8C/	.	.	.
8D#X/	.	.	.
8E/	.	.	.
8C/J	.	.	.
=41	=41	=41	=41
[2.AA/)	4a/]	4c\]	.
.	4r	4ryy	]
.	4r	4ryy	.
=42	=42	=42	=42
!	!	!	!LO:DY:t=pf
(2.AA/_	(4a/	(4f\	fp
.	4g/	4e\	.
.	4f/	4d\	.
=43	=43	=43	=43
8AA/L]	2.e/)	2.c\)	.
8BB/	.	.	.
8C/	.	.	.
8BB/	.	.	.
8AA/	.	.	.
8EE/J)	.	.	.
=44	=44	=44	=44
*^	*	*	*
4ryy	(4FF\	(4d/	4A\	pp
(2G#X/	2EE\	4e/	2ryy	.
.	.	4d/	.	.
*	*	*v	*v	*
=45	=45	=45	=45
8A/L	[2.AA\	[2.c#X/	.
8B/	.	.	.
8A/	.	.	.
!	!	!LO:TX:a:i:t=rit.	!
8F#X/	.	.	.
8E/	.	.	.
8F#/J	.	.	.
=46	=46	=46	=46
4E/)	4AA\])	4c#/])	.
4rAA	4rA	4r	.
4rAA	4rA	4r	.
*v	*v	*	*
==	==	==
*-	*-	*-
!!!system-decoration: {(s1,s2)}
!!!RDF**kern: > = above
!!!RDF**kern: < = below
!!!ENC: Kamil Watkowski
!!!END: 2021-08-09
